common/svg/bug-inspect-icon.svg

<svg fill="none" height="20" viewBox="0 0 20 20" width="20" xmlns="http://www.w3.org/2000/svg"><g fill="#000"><path d="m10.2724 3.06048c-.1672-.5931-.52363-1.11534-1.01491-1.48727-.49136-.37193-1.09072-.57321-1.70697-.57321-.61624 0-1.21561.20128-1.70694.57321-.49134.37193-.84776.89417-1.01502 1.48727.84466-.42421 1.77676-.64512 2.72196-.64512.94521 0 1.87729.22091 2.72188.64512z"/><path d="m9.32873 15.7862c-.94299-1.0356-1.51789-2.4123-1.51789-3.9233 0-2.75511 1.9115-5.0638 4.48066-5.6722h-.1229c-.4336-.85211-1.0945-1.56764-1.9095-2.06742-.81507-.49978-1.75251-.7643-2.70859-.7643s-1.89351.26452-2.70857.7643c-.81504.49978-1.47593 1.21531-1.90951 2.06742h-.57289c-.37548 0-.73557-.14916-1.00107-.41465-.2655-.26551-.414653-.6256-.414653-1.00107 0-.12516-.04972-.24519-.138224-.33369-.088497-.0885-.208529-.13822-.333686-.13822-.125158 0-.245189.04972-.333688.13822-.0885004.0885-.138219.20853-.138219.33369.00074932.62556.249583 1.22528.69192 1.66761.44234.44234 1.04206.69118 1.66762.69192h.20103c-.1322.46034-.19986.93679-.20103 1.41573v.47189h-1.887633c-.125158 0-.245189.04976-.333688.13824-.0885004.08848-.138219.20856-.138219.33368s.0497186.2452.138219.33368c.088499.08848.20853.13824.333688.13824h1.887633v.94383c.00116.3166.03133.6326.09013.9438h-.09013c-.62556.0008-1.22528.2496-1.66762.6919-.442337.4423-.69117068 1.0421-.69192 1.6676 0 .1252.0497186.2452.138219.3337.088499.0885.20853.1382.333688.1382.125157 0 .245189-.0497.333686-.1382.088504-.0885.138224-.2085.138224-.3337 0-.3755.149153-.7355.414653-1.0011.2655-.2655.62559-.4146 1.00107-.4146h.36053c.37875.973 1.04255 1.8091 1.90448 2.3986.86192.5893 1.88177.9048 2.92596.9048.6099 0 1.21152-.1077 1.77822-.3146z"/><path d="m13.3776 6.03978c.1337-.06725.2571-.1559.365-.26373.2654-.26551.4146-.6256.4146-1.00107 0-.12516.0497-.24519.1382-.33369.0886-.0885.2086-.13822.3338-.13822.1251 0 .2451.04972.3336.13822s.1382.20853.1382.33369c-.0006.48645-.1511.95729-.4261 1.35063-.336-.0602-.6819-.09163-1.0351-.09163-.0879 0-.1753.00195-.2622.0058z"/><path clip-rule="evenodd" d="m15.7261 15.556c-.616.3487-1.3279.5477-2.0862.5477-2.3422 0-4.24093-1.8987-4.24093-4.2408 0-2.34211 1.89873-4.24083 4.24093-4.24083 2.3421 0 4.2408 1.89872 4.2408 4.24083 0 1.0499-.3816 2.0107-1.0135 2.7513l2.6651 2.665c.2876.2876.2876.7539 0 1.0414-.2876.2876-.7538.2876-1.0414.0001zm.5546-3.6931c0 1.4585-1.1824 2.6408-2.6408 2.6408-1.4586 0-2.6409-1.1823-2.6409-2.6408 0-1.4584 1.1823-2.64083 2.6409-2.64083 1.4584 0 2.6408 1.18233 2.6408 2.64083z" fill-rule="evenodd"/></g></svg>

<svg width="20" height="20" viewBox="0 0 20 20" fill="none" xmlns="http://www.w3.org/2000/svg">
<path d="M10.2724 3.06048C10.1052 2.46738 9.74877 1.94514 9.25749 1.57321C8.76613 1.20128 8.16677 1 7.55052 1C6.93428 1 6.33491 1.20128 5.84358 1.57321C5.35224 1.94514 4.99582 2.46738 4.82856 3.06048C5.67322 2.63627 6.60532 2.41536 7.55052 2.41536C8.49573 2.41536 9.42781 2.63627 10.2724 3.06048Z" fill="black"/>
<path d="M9.32873 15.7862C8.38574 14.7506 7.81084 13.3739 7.81084 11.8629C7.81084 9.10779 9.72234 6.7991 12.2915 6.1907H12.1686C11.735 5.33859 11.0741 4.62306 10.2591 4.12328C9.44403 3.6235 8.50659 3.35898 7.55051 3.35898C6.59443 3.35898 5.657 3.6235 4.84194 4.12328C4.0269 4.62306 3.36601 5.33859 2.93243 6.1907H2.35954C1.98406 6.1907 1.62397 6.04154 1.35847 5.77605C1.09297 5.51054 0.943817 5.15045 0.943817 4.77498C0.943817 4.64982 0.894097 4.52979 0.805593 4.44129C0.717096 4.35279 0.597064 4.30307 0.471907 4.30307C0.346749 4.30307 0.226718 4.35279 0.138219 4.44129C0.0497186 4.52979 0 4.64982 0 4.77498C0.000749321 5.40054 0.249583 6.00026 0.69192 6.44259C1.13426 6.88493 1.73398 7.13377 2.35954 7.13451H2.56057C2.42837 7.59485 2.36071 8.0713 2.35954 8.55024V9.02213H0.471907C0.346749 9.02213 0.226718 9.07189 0.138219 9.16037C0.0497186 9.24885 0 9.36893 0 9.49405C0 9.61917 0.0497186 9.73925 0.138219 9.82773C0.226718 9.91621 0.346749 9.96597 0.471907 9.96597H2.35954V10.9098C2.3607 11.2264 2.39087 11.5424 2.44967 11.8536H2.35954C1.73398 11.8544 1.13426 12.1032 0.69192 12.5455C0.249583 12.9878 0.000749321 13.5876 0 14.2131C0 14.3383 0.0497186 14.4583 0.138219 14.5468C0.226718 14.6353 0.346749 14.685 0.471907 14.685C0.597064 14.685 0.717096 14.6353 0.805593 14.5468C0.894097 14.4583 0.943817 14.3383 0.943817 14.2131C0.943817 13.8376 1.09297 13.4776 1.35847 13.212C1.62397 12.9465 1.98406 12.7974 2.35954 12.7974H2.72007C3.09882 13.7704 3.76262 14.6065 4.62455 15.196C5.48647 15.7853 6.50632 16.1008 7.55051 16.1008C8.16041 16.1008 8.76203 15.9931 9.32873 15.7862Z" fill="black"/>
<path d="M13.3776 6.03978C13.5113 5.97253 13.6347 5.88388 13.7426 5.77605C14.008 5.51054 14.1572 5.15045 14.1572 4.77498C14.1572 4.64982 14.2069 4.52979 14.2954 4.44129C14.384 4.35279 14.504 4.30307 14.6292 4.30307C14.7543 4.30307 14.8743 4.35279 14.9628 4.44129C15.0513 4.52979 15.101 4.64982 15.101 4.77498C15.1004 5.26143 14.9499 5.73227 14.6749 6.12561C14.3389 6.06541 13.993 6.03398 13.6398 6.03398C13.5519 6.03398 13.4645 6.03593 13.3776 6.03978Z" fill="black"/>
<path fill-rule="evenodd" clip-rule="evenodd" d="M15.7261 15.556C15.1101 15.9047 14.3982 16.1037 13.6399 16.1037C11.2977 16.1037 9.39897 14.205 9.39897 11.8629C9.39897 9.52079 11.2977 7.62207 13.6399 7.62207C15.982 7.62207 17.8807 9.52079 17.8807 11.8629C17.8807 12.9128 17.4991 13.8736 16.8672 14.6142L19.5323 17.2792C19.8199 17.5668 19.8199 18.0331 19.5323 18.3206C19.2447 18.6082 18.7785 18.6082 18.4909 18.3207L15.7261 15.556ZM16.2807 11.8629C16.2807 13.3214 15.0983 14.5037 13.6399 14.5037C12.1813 14.5037 10.999 13.3214 10.999 11.8629C10.999 10.4045 12.1813 9.22207 13.6399 9.22207C15.0983 9.22207 16.2807 10.4044 16.2807 11.8629Z" fill="black"/>
</svg>
